X:37
T:Captain Patrick McKenzie's Strathspey
S:Petrie's Collection of Strathspey Reels and Country Dances &c., 1790
Z:Steve Wyrick <sjwyrick'at'gmail'dot'com>, 3/19/04
N:Petrie's First Collection, page 17
N:Scordatura, tuning A,EAe -SW
L:1/8
M:C
R:Strathspey
K:A
%See X:53 for my version in standard tuning -SW
"^Scordatura"
         G| G,<G,G,>B, (DE/F/)TG>F|TE>DE<G  B/A/B/c/ B<c      |\
            G,<G,G,>B, (DE/F/) Gf |(3(ef)d (3(cd)B c<AA      :|
(e/f/4g/4)|Ta>ga>e      c<ea<c    | d<Be>A (FBBd)             |\
            c<ae<a      f<aB<d    | ceDd    cAA   (e/f/4g/4)  |
           Ta>ga<e      c<ea>c    | d<Be>A  F<BB>D            |\
            E<GD<G      C<GB,>G   | A,B,/C/  D/C/B,/A,/ B,G,G,|]
